22x22/apps/kali-ssdeep.svg

<svg width="22" height="22" version="1.1" xmlns="http://www.w3.org/2000/svg">
 <path d="m9.498861 1.500384c-4.663975 0-8.498479 3.8356587-8.498479 8.501037 0 4.665378 3.834504 8.501037 8.498479 8.501037h0.0039c0.930949-0.0015 1.835885-0.19343 2.7085-0.490294l2.259361 2.260041c1.378787 1.379204 3.850687 1.806071 5.479488 0.17678 1.627625-1.628116 1.201082-4.101938-0.176727-5.480161l-2.261308-2.261995c0.294575-0.871682 0.484915-1.775098 0.485265-2.704431v-1e-3c0-4.6653553-3.834504-8.501014-8.498477-8.501014z" style="opacity:.2"/>
 <path d="m9.498861 1.0003934c-4.663975 0-8.498479 3.8356589-8.498479 8.5010376 0 4.665378 3.834504 8.501037 8.498479 8.501037h0.0039c0.930949-0.0015 1.835885-0.193431 2.7085-0.490294l2.259361 2.260041c1.378787 1.379203 3.850687 1.806071 5.479488 0.176779 1.627625-1.628116 1.201082-4.101938-0.176727-5.48016l-2.261308-2.261995c0.294575-0.871682 0.484915-1.775099 0.485265-2.704432v-1e-3c0-4.6653547-3.834504-8.5010136-8.498477-8.5010136z" style="fill:#018787"/>
 <path d="m9.5 4.5000608a5.5000002 5.5000002 0 0 0-5.5 5.5000002 5.5000002 5.5000002 0 0 0 5.5 5.5 5.5000002 5.5000002 0 0 0 3.117188-0.96875l3.675781 3.675781c0.942508 0.98168 2.395742-0.471554 1.414062-1.414062l-3.679687-3.679688a5.5000002 5.5000002 0 0 0 0.972656-3.113281 5.5000002 5.5000002 0 0 0-5.5-5.5000002zm0 2a3.4999999 3.4999999 0 0 1 3.5 3.5000002 3.4999999 3.4999999 0 0 1-3.5 3.5 3.4999999 3.4999999 0 0 1-3.5-3.5 3.4999999 3.4999999 0 0 1 3.5-3.5000002z" style="opacity:.2"/>
 <path d="m9.5 4a5.5000002 5.5000002 0 0 0-5.5 5.5 5.5000002 5.5000002 0 0 0 5.5 5.5 5.5000002 5.5000002 0 0 0 3.117188-0.96875l3.675781 3.675781c0.942508 0.98168 2.395742-0.471554 1.414062-1.414062l-3.679687-3.679688a5.5000002 5.5000002 0 0 0 0.972656-3.113281 5.5000002 5.5000002 0 0 0-5.5-5.5zm0 2a3.4999999 3.4999999 0 0 1 3.5 3.5 3.4999999 3.4999999 0 0 1-3.5 3.5 3.4999999 3.4999999 0 0 1-3.5-3.5 3.4999999 3.4999999 0 0 1 3.5-3.5z" style="fill:#f4f4f7"/>
 <path d="m9.498861 1.0003934c-4.663975 0-8.498861 3.8354349-8.498861 8.5008136 0 0.08434 0.01021 0.166215 0.0127 0.249995 0.135169-4.5506162 3.906507-8.2508182 8.486166-8.2508182 4.580643 0 8.352535 3.701808 8.486165 8.2537472 0.0031-0.08411 0.01266-0.167405 0.01269-0.251948v-1e-3c0-4.6653312-3.834887-8.5007896-8.49886-8.5007896zm8.129727 11.323025c-0.03815 0.127997-0.0734 0.257108-0.116209 0.383782l2.260698 2.261675c0.692275 0.692483 1.143717 1.66167 1.215798 2.661082 0.06787-1.169447-0.408396-2.353427-1.215798-3.161072z" style="fill:#f4f4f7;opacity:.1"/>
</svg>

<svg width="22" height="22" xmlns="http://www.w3.org/2000/svg"><path d="M9.499 1.5C4.835 1.5 1 5.336 1 10.001c0 4.666 3.835 8.501 8.499 8.501h.004c.93-.001 1.836-.193 2.708-.49l2.26 2.26c1.378 1.38 3.85 1.806 5.48.177 1.627-1.628 1.2-4.102-.178-5.48l-2.26-2.262c.294-.872.484-1.775.484-2.705 0-4.666-3.834-8.502-8.498-8.502z" style="opacity:.2"/><path d="M9.499 1C4.835 1 1 4.836 1 9.501c0 4.666 3.835 8.501 8.499 8.501h.004c.93-.001 1.836-.193 2.708-.49l2.26 2.26c1.378 1.38 3.85 1.806 5.48.177 1.627-1.628 1.2-4.102-.178-5.48l-2.26-2.262c.294-.872.484-1.775.484-2.705C17.997 4.835 14.163 1 9.5 1z" style="fill:#018787"/><path d="M9.5 4.5A5.5 5.5 0 0 0 4 10a5.5 5.5 0 0 0 5.5 5.5 5.5 5.5 0 0 0 3.117-.969l3.676 3.676c.942.982 2.396-.471 1.414-1.414l-3.68-3.68A5.5 5.5 0 0 0 15 10a5.5 5.5 0 0 0-5.5-5.5zm0 2A3.5 3.5 0 0 1 13 10a3.5 3.5 0 0 1-3.5 3.5A3.5 3.5 0 0 1 6 10a3.5 3.5 0 0 1 3.5-3.5z" style="opacity:.2"/><path d="M9.5 4A5.5 5.5 0 0 0 4 9.5 5.5 5.5 0 0 0 9.5 15a5.5 5.5 0 0 0 3.117-.969l3.676 3.676c.942.982 2.396-.472 1.414-1.414l-3.68-3.68A5.5 5.5 0 0 0 15 9.5 5.5 5.5 0 0 0 9.5 4zm0 2A3.5 3.5 0 0 1 13 9.5 3.5 3.5 0 0 1 9.5 13 3.5 3.5 0 0 1 6 9.5 3.5 3.5 0 0 1 9.5 6z" style="fill:#f4f4f7"/><path d="M9.499 1C4.835 1 1 4.836 1 9.501c0 .085.01.166.013.25.135-4.55 3.906-8.25 8.486-8.25s8.352 3.701 8.486 8.253c.003-.084.013-.167.013-.252 0-4.666-3.835-8.502-8.5-8.502zm8.13 11.323c-.039.128-.074.258-.117.384l2.261 2.262a4.255 4.255 0 0 1 1.216 2.661c.068-1.17-.409-2.353-1.216-3.161z" style="fill:#f4f4f7;opacity:.1"/></svg>
